X: 98
T:Mary Kelynak
M:2/4
L:1/16
R:Polka
Z:bil@blueskiesink.com
K:G
GFGB d2cd|A^GAc e2e2|d^cde fgaf|1g2B2 B&gt;A:|2g2B2 G4|!
e^deB g2g2|e^dec a2a2|ABcd e2g2|1efdg G2G:|2efdg G2G2|!

